X: 146
T: No_7_Song_of_Elder_Brother_After_Returning_to_Life.krn
N: Derived from No_7_Song_of_Elder_Brother_After_Returning_to_Life.krn
%%abc-version 2.0
%%abcx-abcm2ps-target-version 5.9.1 (29 Sep 2008)
%%abc-creator hum2abc beta
%%abcx-conversion-date 2019/03/15 08:37:56
%%humdrum-veritas 3926525120
%%humdrum-veritas-data 140570811
%%linebreak <none>
%%barnumbers 0
L: 1/8
M: 2/4
K: Gb clef=bass
[K:clef=bass][M:2/4]E,2E,3/E,/ | 
G,2G,2 ||  
[M:3/4]G,2F,3/G,/ (3A,A,G, | 
G,G,/E,/F,3G,/F,/ ||  
[M:2/4]E,3/E,/ E,3/D,/ ||  
[M:3/4]E,3/E,/E,2z2 ]|:  
[M:2/4]E,2E,3/E,/ | 
G,2G,2 ||  
[M:3/4]G,2F,3/G,/ (3A,A,G, | 
G,G,/E,/F,3G,/F,/ ||  
[M:2/4]E,3/E,/ E,3/D,/ ||  
[M:3/4]E,3/E,/E,2z2 ||  
[M:2/4]B,,3/E,/ E,3/E,/ ||  
[M:3/4]E,3/E,/E,4 :|]  



